mono-glyphs/movies-w.svg

<svg width="1024" height="1024" viewBox="0 0 1024 1024" fill="none" xmlns="http://www.w3.org/2000/svg">
<mask id="mask0_47_1333" style="mask-type:luminance" maskUnits="userSpaceOnUse" x="52" y="0" width="920" height="1024">
<path d="M971.053 0H52.9492V1024H971.053V0Z" fill="white"/>
</mask>
<g mask="url(#mask0_47_1333)">
<path d="M232.274 1023C210.628 1023 190.315 1018.68 171.334 1010.01C152.352 1001.35 135.785 989.7 121.632 975.048C107.479 960.395 96.3236 943.412 88.1648 924.098C80.0061 904.783 75.9268 884.469 75.9268 863.157V420.09C75.9268 420.09 75.0943 417.26 73.4292 411.598C71.7641 405.937 69.9326 399.693 67.9346 392.866C65.9365 386.04 64.105 379.629 62.44 373.635C60.7749 367.641 59.7759 364.144 59.4429 363.145C57.4448 355.82 55.8631 348.493 54.6975 341.167C53.5319 333.841 52.9492 326.348 52.9492 318.689C52.9492 301.039 55.8631 284.056 61.6907 267.739C67.5183 251.421 75.5105 236.519 85.6673 223.032C95.824 209.545 107.979 197.807 122.132 187.817C136.285 177.826 151.853 170.334 168.836 165.339L721.796 5.49463C735.782 1.4986 750.435 -0.499512 765.753 -0.499512C783.403 -0.499512 800.386 2.33109 816.703 7.9922C833.02 13.6534 848.006 21.5623 861.659 31.719C875.313 41.8758 887.135 54.0306 897.125 68.1834C907.115 82.3363 914.608 97.9045 919.603 114.888C920.602 118.884 922.183 124.129 924.348 130.622C926.513 137.116 928.677 143.86 930.842 150.853C933.007 157.846 934.838 164.506 936.337 170.833C937.835 177.16 938.584 181.989 938.584 185.319C938.584 192.312 936.419 198.723 932.091 204.55C927.762 210.378 922.267 214.291 915.607 216.289L334.175 383.625H939.084C947.742 383.625 955.235 386.789 961.562 393.116C967.889 399.443 971.053 406.936 971.053 415.594V866.654C971.053 887.633 966.807 907.614 958.315 926.595C949.823 945.577 938.501 962.143 924.348 976.297C910.195 990.45 893.628 1001.77 874.647 1010.26C855.665 1018.76 835.685 1023 814.705 1023H232.274ZM705.312 210.295L867.154 163.34C863.491 151.685 859.828 140.613 856.165 130.123C852.501 119.633 847.84 110.142 842.178 101.651C836.517 93.159 829.441 85.8329 820.949 79.6722C812.458 73.5116 801.551 68.9327 788.231 65.9356C776.576 88.9132 763.089 112.973 747.771 138.115C732.453 163.258 718.299 187.317 705.312 210.295ZM481.031 274.732L616.898 235.77L708.809 75.9259L572.941 114.888C572.609 116.22 570.277 120.715 565.948 128.375C561.619 136.034 556.291 145.358 549.964 156.347C543.637 167.337 536.81 179.158 529.484 191.813C522.158 204.467 515.165 216.456 508.504 227.778C501.844 239.1 496.017 249.09 491.021 257.748C486.026 266.407 482.697 272.067 481.031 274.732ZM257.25 339.169L392.618 300.207L485.027 140.363L349.16 179.824C332.843 205.799 317.274 232.19 302.456 258.997C287.637 285.804 272.568 312.528 257.25 339.169ZM129.874 376.133L168.337 364.644L260.746 205.3L186.319 226.779C175.996 229.776 166.588 234.271 158.097 240.265C149.605 246.26 142.362 253.253 136.368 261.245C130.374 269.237 125.711 278.145 122.381 287.969C119.052 297.792 117.386 308.032 117.386 318.689C117.386 328.679 118.802 338.337 121.632 347.66C124.462 356.984 127.21 366.475 129.874 376.133ZM811.209 959.063C824.196 959.063 836.517 956.566 848.173 951.571C859.828 946.576 870.068 939.665 878.893 930.841C887.717 922.017 894.627 911.777 899.622 900.121C904.618 888.465 907.115 876.144 907.115 863.157V447.563H139.864V863.157C139.864 876.144 142.362 888.465 147.357 900.121C152.352 911.777 159.262 922.017 168.087 930.841C176.911 939.665 187.151 946.576 198.807 951.571C210.462 956.566 222.783 959.063 235.771 959.063H811.209Z" fill="white"/>
</g>
</svg>

<svg xmlns="http://www.w3.org/2000/svg" width="1024" height="1024" fill="none" viewBox="0 0 1024 1024">
  <g clip-path="url(#a)">
    <path fill="#fff" d="M232.274 1023c-21.646 0-41.959-4.32-60.94-12.99-18.982-8.66-35.549-20.311-49.702-34.963-14.153-14.653-25.308-31.635-33.467-50.949-8.159-19.315-12.238-39.63-12.238-60.942V420.09l-2.498-8.492c-1.665-5.661-3.496-11.905-5.494-18.732a1452.26 1452.26 0 0 1-5.495-19.231c-1.665-5.994-2.664-9.491-2.997-10.49a207.18 207.18 0 0 1-4.745-21.978c-1.166-7.326-1.749-14.819-1.749-22.478 0-17.65 2.914-34.633 8.742-50.95 5.827-16.318 13.82-31.22 23.976-44.707 10.157-13.487 22.312-25.225 36.465-35.215 14.153-9.991 29.721-17.483 46.704-22.478L721.796 5.494C735.782 1.498 750.435-.5 765.753-.5c17.65 0 34.633 2.83 50.95 8.492 16.317 5.66 31.303 13.57 44.956 23.726 13.654 10.157 25.476 22.312 35.466 36.465 9.99 14.153 17.483 29.721 22.478 46.705.999 3.996 2.58 9.241 4.745 15.734a986.49 986.49 0 0 1 6.494 20.231c2.165 6.993 3.996 13.653 5.495 19.98 1.498 6.327 2.247 11.156 2.247 14.486 0 6.993-2.165 13.404-6.493 19.231-4.329 5.828-9.824 9.741-16.484 11.739L334.175 383.625h604.909c8.658 0 16.151 3.164 22.478 9.491 6.327 6.327 9.491 13.82 9.491 22.478v451.06c0 20.979-4.246 40.959-12.738 59.94-8.492 18.982-19.814 35.549-33.967 49.703-14.153 14.153-30.72 25.473-49.701 33.963-18.982 8.5-38.962 12.74-59.942 12.74H232.274Zm473.038-812.705 161.842-46.955a1114.595 1114.595 0 0 0-10.989-33.217c-3.664-10.49-8.325-19.981-13.987-28.472-5.661-8.492-12.737-15.819-21.229-21.98-8.491-6.16-19.398-10.739-32.718-13.736-11.655 22.978-25.142 47.038-40.46 72.18-15.318 25.143-29.472 49.202-42.459 72.18Zm-224.281 64.437 135.867-38.962 91.911-159.845-135.868 38.963c-.332 1.332-2.664 5.827-6.993 13.487a4153.983 4153.983 0 0 1-15.984 27.972 17176.951 17176.951 0 0 1-20.48 35.466 5968.291 5968.291 0 0 1-20.98 35.965 4207.466 4207.466 0 0 0-17.483 29.969c-4.995 8.659-8.324 14.32-9.99 16.985ZM257.25 339.169l135.368-38.962 92.409-159.844-135.867 39.461a1643.745 1643.745 0 0 0-46.704 79.173 5470.324 5470.324 0 0 1-45.206 80.172Zm-127.376 36.964 38.463-11.489L260.746 205.3l-74.427 21.479c-10.323 2.997-19.731 7.492-28.222 13.486-8.492 5.995-15.735 12.988-21.729 20.98-5.994 7.992-10.657 16.9-13.987 26.724-3.329 9.823-4.995 20.063-4.995 30.72 0 9.99 1.416 19.648 4.246 28.971 2.83 9.324 5.578 18.815 8.242 28.473Zm681.335 582.929c12.987 0 25.308-2.497 36.964-7.492 11.655-4.995 21.895-11.905 30.72-20.729 8.824-8.824 15.734-19.065 20.729-30.721 4.996-11.656 7.493-23.977 7.493-36.964V447.562H139.864v415.594c0 12.987 2.498 25.308 7.493 36.964 4.995 11.656 11.905 21.897 20.73 30.721 8.824 8.824 19.064 15.734 30.72 20.729 11.655 4.995 23.976 7.492 36.964 7.492h575.438Z"/>
  </g>
  <defs>
    <clipPath id="a">
      <path fill="#fff" d="M0 0h1024v1024H0z"/>
    </clipPath>
  </defs>
</svg>
